svg/fluentui-system-icons/ic_fluent_tab_prohibited_20_regular.svg

<svg width="20" height="20" viewBox="0 0 20 20" fill="none" xmlns="http://www.w3.org/2000/svg">
<path d="M3 5C3 3.89543 3.89543 3 5 3H15C16.1046 3 17 3.89543 17 5V9.59971C16.6832 9.43777 16.3486 9.30564 16 9.20703V5C16 4.44772 15.5523 4 15 4H5C4.44772 4 4 4.44772 4 5V15C4 15.5523 4.44772 16 5 16H9.20703C9.30564 16.3486 9.43777 16.6832 9.59971 17H5C3.89543 17 3 16.1046 3 15V5ZM10 14.5C10 16.9853 12.0147 19 14.5 19C16.9853 19 19 16.9853 19 14.5C19 12.0147 16.9853 10 14.5 10C12.0147 10 10 12.0147 10 14.5ZM11 14.5C11 12.567 12.567 11 14.5 11C15.2862 11 16.0118 11.2592 16.5961 11.6968L11.6968 16.5961C11.2592 16.0118 11 15.2862 11 14.5ZM14.5 18C13.7138 18 12.9882 17.7408 12.4039 17.3032L17.3032 12.4039C17.7408 12.9882 18 13.7138 18 14.5C18 16.433 16.433 18 14.5 18Z" fill="#212121"/>
</svg>

<svg xmlns="http://www.w3.org/2000/svg" width="20" height="20"><path d="M3 5a2 2 0 0 1 2-2h10a2 2 0 0 1 2 2v4.6a5.465 5.465 0 0 0-1-.393V5a1 1 0 0 0-1-1H5a1 1 0 0 0-1 1v10a1 1 0 0 0 1 1h4.207c.099.349.23.683.393 1H5a2 2 0 0 1-2-2V5Zm7 9.5a4.5 4.5 0 1 0 9 0 4.5 4.5 0 0 0-9 0Zm1 0a3.5 3.5 0 0 1 5.596-2.803l-4.9 4.9A3.484 3.484 0 0 1 11 14.5Zm3.5 3.5c-.786 0-1.512-.26-2.096-.697l4.9-4.9A3.5 3.5 0 0 1 14.5 18Z"/></svg>
